build/images/advantage-icon-5.svg

<?xml version="1.0" encoding="UTF-8"?>
<svg width="104px" height="104px" viewBox="0 0 104 104" version="1.1" xmlns="http://www.w3.org/2000/svg" xmlns:xlink="http://www.w3.org/1999/xlink">
    <!-- Generator: sketchtool 52.6 (67491) - http://www.bohemiancoding.com/sketch -->
    <title>5CC118C8-8A19-415F-AFAC-C3FA2A54A575</title>
    <desc>Created with sketchtool.</desc>
    <defs>
        <polygon id="path-1" points="4 2 16 2 16 34 10.0009766 28 4 34"></polygon>
        <polygon id="path-3" points="4 2 16 2 16 34 10.0009766 28 4 34"></polygon>
    </defs>
    <g id="Symbols" stroke="none" stroke-width="1" fill="none" fill-rule="evenodd">
        <g id="graphic/main/img05">
            <g id="Group-17">
                <rect id="Rectangle-Copy-12" x="0" y="0" width="104" height="104"></rect>
                <rect id="Rectangle" fill="#FFFFFF" x="0" y="0" width="80" height="104" rx="2"></rect>
                <g id="Fill-1" transform="translate(79.000000, 56.000000)">
                    <mask id="mask-2" fill="white">
                        <use xlink:href="#path-1"></use>
                    </mask>
                    <use id="Mask" fill="#3AA65E" transform="translate(10.000000, 18.000000) rotate(-15.000000) translate(-10.000000, -18.000000) " xlink:href="#path-1"></use>
                    <path d="M21.0550702,-3.99994937 C21.0550702,-6.95564352 23.8215812,-10.4421014 22.7559665,-13.0118386 C21.6512306,-15.6767513 17.1890783,-16.1730651 15.1810514,-18.181092 C13.1730245,-20.1891189 12.6767108,-24.6506872 10.012382,-25.756007 C7.44206085,-26.8216218 3.95560298,-24.0551107 0.999908833,-24.0551107 C-1.95578531,-24.0551107 -5.44165929,-26.8216218 -8.01198043,-25.7554231 C-10.6763092,-24.6506872 -11.1732068,-20.188535 -13.1812337,-18.181092 C-15.1886767,-16.1730651 -19.650829,-15.6761674 -20.7555649,-13.0118386 C-21.8211797,-10.4421014 -19.0546686,-6.95564352 -19.0546686,-3.99994937 C-19.0546686,-1.04425523 -21.8211797,2.44220264 -20.7555649,5.01193989 C-19.650829,7.67685259 -15.1886767,8.17316631 -13.1806498,10.1811932 C-11.1732068,12.1892201 -10.6763092,16.6507885 -8.01198043,17.7555244 C-5.44165929,18.821723 -1.95578531,16.055212 0.999908833,16.055212 C3.95560298,16.055212 7.44206085,18.821723 10.012382,17.7555244 C12.6767108,16.6507885 13.1730245,12.1886362 15.1810514,10.1811932 C17.1890783,8.17316631 21.6512306,7.67626869 22.7559665,5.01193989 C23.8215812,2.44220264 21.0550702,-1.04425523 21.0550702,-3.99994937" stroke="#E6E6E6" stroke-width="4" fill="#FFFFFF" mask="url(#mask-2)"></path>
                </g>
                <g id="Fill-1" transform="translate(61.000000, 56.000000)">
                    <mask id="mask-4" fill="white">
                        <use xlink:href="#path-3"></use>
                    </mask>
                    <use id="Mask" fill="#3AA65E" transform="translate(10.000000, 18.000000) rotate(15.000000) translate(-10.000000, -18.000000) " xlink:href="#path-3"></use>
                    <path d="M39.0550702,-3.99994937 C39.0550702,-6.95564352 41.8215812,-10.4421014 40.7559665,-13.0118386 C39.6512306,-15.6767513 35.1890783,-16.1730651 33.1810514,-18.181092 C31.1730245,-20.1891189 30.6767108,-24.6506872 28.012382,-25.756007 C25.4420609,-26.8216218 21.955603,-24.0551107 18.9999088,-24.0551107 C16.0442147,-24.0551107 12.5583407,-26.8216218 9.98801957,-25.7554231 C7.32369077,-24.6506872 6.82679315,-20.188535 4.81876625,-18.181092 C2.81132325,-16.1730651 -1.650829,-15.6761674 -2.75556494,-13.0118386 C-3.82117968,-10.4421014 -1.05466864,-6.95564352 -1.05466864,-3.99994937 C-1.05466864,-1.04425523 -3.82117968,2.44220264 -2.75556494,5.01193989 C-1.650829,7.67685259 2.81132325,8.17316631 4.81935015,10.1811932 C6.82679315,12.1892201 7.32369077,16.6507885 9.98801957,17.7555244 C12.5583407,18.821723 16.0442147,16.055212 18.9999088,16.055212 C21.955603,16.055212 25.4420609,18.821723 28.012382,17.7555244 C30.6767108,16.6507885 31.1730245,12.1886362 33.1810514,10.1811932 C35.1890783,8.17316631 39.6512306,7.67626869 40.7559665,5.01193989 C41.8215812,2.44220264 39.0550702,-1.04425523 39.0550702,-3.99994937" stroke="#FFFFFF" stroke-width="4" fill="#FFFFFF" mask="url(#mask-4)"></path>
                </g>
                <path d="M101.755766,42.9884027 C100.65103,40.32349 96.1888775,39.8271763 94.1808506,37.8191494 C92.1728237,35.8111225 91.67651,31.3495541 89.0121812,30.2442343 C86.4418601,29.1786195 82.9554022,31.9451306 79.9997081,31.9451306 C77.0440139,31.9451306 73.5581399,29.1786195 70.9878188,30.2448182 C68.32349,31.3495541 67.8265924,35.8117064 65.8185655,37.8191494 C63.8111225,39.8271763 59.3489702,40.3240739 58.2442343,42.9884027 C57.1786195,45.5581399 59.9451306,49.0445978 59.9451306,52.0002919 C59.9451306,54.9559861 57.1786195,58.442444 58.2442343,61.0121812 C59.3489702,63.6770939 63.8111225,64.1734076 65.8191494,66.1814345 C67.8265924,68.1894614 68.32349,72.6510298 70.9878188,73.7557657 C73.5581399,74.8219644 77.0440139,72.0554533 79.9997081,72.0554533 C82.9554022,72.0554533 86.4418601,74.8219644 89.0121812,73.7557657 C91.67651,72.6510298 92.1728237,68.1888775 94.1808506,66.1814345 C96.1888775,64.1734076 100.65103,63.67651 101.755766,61.0121812 C102.82138,58.442444 100.054869,54.9559861 100.054869,52.0002919 C100.054869,49.0445978 102.82138,45.5581399 101.755766,42.9884027 Z" id="Fill-1" fill="#3AA65E"></path>
                <g id="Group-13" transform="translate(68.000000, 40.000000)">
                    <circle id="Oval" stroke="#FFFFFF" stroke-width="2" fill="#3AA65E" cx="12" cy="12" r="13"></circle>
                    <g id="Group-2" transform="translate(4.000000, 4.000000)">
                        <rect id="Rectangle" x="0" y="0" width="16" height="16"></rect>
                        <polyline id="Line-3" stroke="#FFFFFF" stroke-width="2" stroke-linecap="square" points="4 8.5 6.5 11 12 5.5"></polyline>
                    </g>
                </g>
                <rect id="Rectangle" fill="#1A1A1A" x="12" y="12" width="36" height="4" rx="2"></rect>
                <rect id="Rectangle" fill="#1A1A1A" x="12" y="21" width="48" height="1"></rect>
                <rect id="Rectangle" fill="#1A1A1A" x="12" y="25" width="48" height="1"></rect>
                <rect id="Rectangle" fill="#999999" x="12" y="87" width="32" height="1"></rect>
                <rect id="Rectangle" fill="#999999" x="12" y="91" width="32" height="1"></rect>
                <rect id="Rectangle" fill="#1A1A1A" x="12" y="29" width="48" height="1"></rect>
                <rect id="Rectangle" fill="#1A1A1A" x="12" y="33" width="32" height="1"></rect>
            </g>
        </g>
    </g>
</svg>

<svg width="104" height="104" xmlns="http://www.w3.org/2000/svg" xmlns:xlink="http://www.w3.org/1999/xlink"><defs><path id="a" d="M4 2h12v32l-5.999-6L4 34z"/><path id="c" d="M4 2h12v32l-5.999-6L4 34z"/></defs><g fill="none" fill-rule="evenodd"><path d="M0 0h104v104H0z"/><rect fill="#FFF" width="80" height="104" rx="2"/><g transform="translate(79 56)"><mask id="b" fill="#fff"><use xlink:href="#a"/></mask><use fill="#3AA65E" transform="rotate(-15 10 18)" xlink:href="#a"/><path d="M21.055-4c0-2.956 2.767-6.442 1.701-9.012-1.105-2.665-5.567-3.161-7.575-5.17-2.008-2.007-2.504-6.469-5.169-7.574-2.57-1.066-6.056 1.7-9.012 1.7-2.956 0-6.442-2.766-9.012-1.7-2.664 1.105-3.161 5.567-5.17 7.575-2.007 2.008-6.469 2.505-7.574 5.17-1.065 2.569 1.701 6.055 1.701 9.011 0 2.956-2.766 6.442-1.7 9.012 1.104 2.665 5.566 3.161 7.574 5.17 2.008 2.007 2.505 6.469 5.169 7.574 2.57 1.066 6.056-1.7 9.012-1.7 2.956 0 6.442 2.766 9.012 1.7 2.665-1.105 3.161-5.567 5.17-7.575 2.007-2.008 6.47-2.505 7.574-5.17 1.066-2.569-1.7-6.055-1.7-9.01" stroke="#E6E6E6" stroke-width="4" fill="#FFF" mask="url(#b)"/></g><g transform="translate(61 56)"><mask id="d" fill="#fff"><use xlink:href="#c"/></mask><use fill="#3AA65E" transform="rotate(15 10 18)" xlink:href="#c"/><path d="M39.055-4c0-2.956 2.767-6.442 1.701-9.012-1.105-2.665-5.567-3.161-7.575-5.17-2.008-2.007-2.504-6.469-5.169-7.574-2.57-1.066-6.056 1.7-9.012 1.7-2.956 0-6.442-2.766-9.012-1.7-2.664 1.105-3.161 5.567-5.17 7.575-2.007 2.008-6.469 2.505-7.574 5.17C-3.82-10.443-1.055-6.957-1.055-4c0 2.956-2.766 6.442-1.7 9.012 1.104 2.665 5.566 3.161 7.574 5.17 2.008 2.007 2.505 6.469 5.169 7.574 2.57 1.066 6.056-1.7 9.012-1.7 2.956 0 6.442 2.766 9.012 1.7 2.665-1.105 3.161-5.567 5.17-7.575 2.007-2.008 6.47-2.505 7.574-5.17 1.066-2.569-1.7-6.055-1.7-9.01" stroke="#FFF" stroke-width="4" fill="#FFF" mask="url(#d)"/></g><path d="M101.756 42.988c-1.105-2.665-5.567-3.16-7.575-5.169-2.008-2.008-2.504-6.47-5.169-7.575-2.57-1.065-6.057 1.701-9.012 1.701-2.956 0-6.442-2.766-9.012-1.7-2.665 1.105-3.161 5.567-5.17 7.574-2.007 2.008-6.469 2.505-7.574 5.17-1.065 2.57 1.701 6.056 1.701 9.011 0 2.956-2.766 6.442-1.7 9.012 1.104 2.665 5.566 3.161 7.574 5.17 2.008 2.007 2.504 6.469 5.169 7.574 2.57 1.066 6.056-1.7 9.012-1.7 2.955 0 6.442 2.766 9.012 1.7 2.665-1.105 3.16-5.567 5.169-7.575 2.008-2.008 6.47-2.504 7.575-5.169 1.065-2.57-1.701-6.056-1.701-9.012 0-2.955 2.766-6.442 1.7-9.012z" fill="#3AA65E"/><g transform="translate(68 40)"><circle stroke="#FFF" stroke-width="2" fill="#3AA65E" cx="12" cy="12" r="13"/><path d="M4 4h16v16H4z"/><path stroke="#FFF" stroke-width="2" stroke-linecap="square" d="M8 12.5l2.5 2.5L16 9.5"/></g><rect fill="#1A1A1A" x="12" y="12" width="36" height="4" rx="2"/><path fill="#1A1A1A" d="M12 21h48v1H12zm0 4h48v1H12z"/><path fill="#999" d="M12 87h32v1H12zm0 4h32v1H12z"/><path fill="#1A1A1A" d="M12 29h48v1H12zm0 4h32v1H12z"/></g></svg>
